Gruvbox-Plus-Dark/panel/22/kazam-stopped.svg

<svg xmlns="http://www.w3.org/2000/svg" width="22" height="22" version="1">
 <defs>
  <style id="current-color-scheme" type="text/css">
   .ColorScheme-Text { color:#ebdbb2; } .ColorScheme-Highlight { color:#458588; }
  </style>
 </defs>
 <path style="fill:currentColor" class="ColorScheme-Text" d="M 3.1816406 5 C 2.5269406 5 2 5.5344188 2 6.1992188 L 2 15.800781 C 2 16.465781 2.5269406 17 3.1816406 17 L 13.818359 17 C 14.473359 17 15 16.465781 15 15.800781 L 15 13 L 20 15 L 20 7 L 15 9 L 15 6.1992188 C 15 5.5344188 14.473359 5 13.818359 5 L 3.1816406 5 z M 5 8 L 11 8 L 11 14 L 5 14 L 5 8 z"/>
</svg>

<svg width="22" height="22" version="1" xmlns="http://www.w3.org/2000/svg">
  <defs>
    <style id="current-color-scheme" type="text/css">.ColorScheme-Text { color:#ebdbb2; } .ColorScheme-Highlight { color:#458588; } .ColorScheme-NeutralText { color:#fe8019; } .ColorScheme-PositiveText { color:#689d6a; } .ColorScheme-NegativeText { color:#fb4934; }</style>
  </defs>
  <path class="ColorScheme-Text" d="m3.182 5c-0.6547 0-1.182 0.5344-1.182 1.199v9.602c0 0.665 0.5269 1.199 1.182 1.199h10.64c0.655 0 1.182-0.5342 1.182-1.199v-2.801l5 2v-8l-5 2v-2.801c0-0.6648-0.5266-1.199-1.182-1.199h-10.64zm1.818 3h6v6h-6v-6z" fill="currentColor"/>
</svg>
